OFDR/img/documents/fireman.svg

<svg width="56" height="64" viewBox="0 0 56 64" fill="none" xmlns="http://www.w3.org/2000/svg">
<g id="fireman">
<path id="Shape" fill-rule="evenodd" clip-rule="evenodd" d="M53.7296 50.2653C53.0373 46.0813 50.1272 42.6482 46.1355 41.3065L37.2712 38.3282V37H35.2109V38.7623L28 49.6661L20.7891 38.7623V37H18.7288V38.3282L9.86557 41.3065C5.87381 42.6482 2.96369 46.0813 2.27144 50.2653L0 64H28H56L53.7296 50.2653ZM9.5555 61.9231H2.43317L2.76384 59.9188L9.66778 60.7891L9.5555 61.9231ZM3.10276 57.8689L9.87278 58.7225L10.087 56.5584L3.45712 55.7224L3.10276 57.8689ZM26.9699 61.9231H11.6261L12.5429 52.6808L10.4929 52.4741L10.2931 54.4918L3.79706 53.6735L4.30389 50.608C4.86943 47.1842 7.25006 44.3752 10.5166 43.2775L17.8687 40.807L14.3219 48.852L26.9699 56.2884V61.9231ZM16.9539 47.9942L26.9699 53.8843V51.8531L19.9403 41.2224L16.9539 47.9942ZM29.0301 51.8531L36.0597 41.2234L39.0461 47.9952L29.0301 53.8843V51.8531ZM43.4571 52.6797L45.5071 52.4731L45.708 54.4918L52.204 53.6735L51.6971 50.608C51.1306 47.1842 48.7499 44.3752 45.4824 43.2754L38.1303 40.8049L41.6771 48.8499L29.0301 56.2873V61.922H35.2109V53.6143H37.2712V61.922H44.3739L43.4571 52.6797ZM45.9119 56.5584L52.5418 55.7224L52.8962 57.8689L46.1262 58.7225L45.9119 56.5584ZM46.3322 60.7891L46.4445 61.9231H53.5668L53.2362 59.9188L46.3322 60.7891Z" fill="#86ADEF"/>
<path id="Shape_2" fill-rule="evenodd" clip-rule="evenodd" d="M10.9415 19.5135H9.70078C8.8705 19.5135 8.08894 19.1931 7.50225 18.6108L5 16.1315L6.46569 14.6793L8.96794 17.1585C9.16074 17.3496 9.42817 17.4595 9.70078 17.4595H11.9522V15.4054C11.9522 6.91086 18.9272 0 27.5005 0C36.0739 0 43.0489 6.91086 43.0489 15.4054V17.4595H45.3003C45.5729 17.4595 45.8393 17.3496 46.0321 17.1585L48.5343 14.6793L50 16.1315L47.4978 18.6108C46.9111 19.1931 46.1295 19.5135 45.2992 19.5135H44.0585C44.7167 20.3742 45.122 21.4341 45.122 22.5946C45.122 25.2299 43.1007 27.3826 40.5176 27.6722C39.9879 29.4736 39.0125 31.1271 37.636 32.491L33.5944 36.4964C32.6159 37.4659 31.314 38 29.9292 38H25.0719C23.687 38 22.3851 37.4659 21.4066 36.4964L17.3651 32.491C15.9885 31.1271 15.0121 29.4746 14.4834 27.6722C11.9004 27.3826 9.87907 25.2299 9.87907 22.5946C9.87907 21.4341 10.2844 20.3742 10.9415 19.5135ZM36.1703 31.0388C37.9314 29.2929 38.9026 26.9718 38.9026 24.5028V19.5135H16.0984V24.5028C16.0984 26.9718 17.0697 29.2929 18.8308 31.0388L22.8723 35.0442C23.459 35.6255 24.2406 35.9459 25.0719 35.9459H29.9292C30.7605 35.9459 31.541 35.6255 32.1287 35.0442L36.1703 31.0388ZM20.3794 9.72903L27.5005 5.31897L34.6217 9.72903L32.8885 17.4595H22.1125L20.3794 9.72903ZM40.927 25.5011C42.1553 25.0903 43.0489 23.9492 43.0489 22.5946C43.0489 21.2574 42.1792 20.1277 40.9757 19.7025V24.5028C40.9757 24.8386 40.956 25.1714 40.927 25.5011ZM14.0253 15.4054H17.135V13.3514H14.2015C15.2039 6.96324 20.7774 2.05405 27.5005 2.05405C34.2236 2.05405 39.7972 6.96324 40.7995 13.3514H37.8661V15.4054H40.9757V17.4595H35.0124L36.9643 8.75746L27.5005 2.89724L18.0368 8.75746L19.9886 17.4595H14.0253V15.4054ZM14.0253 24.5028V19.7025C12.8219 20.1277 11.9522 21.2574 11.9522 22.5946C11.9522 23.9492 12.8457 25.0903 14.074 25.5021C14.045 25.1714 14.0253 24.8386 14.0253 24.5028Z" fill="#86ADEF"/>
<rect id="Rectangle" x="24" y="13" width="8" height="2" fill="#86ADEF"/>
<rect id="Rectangle_2" x="34" y="45" width="2" height="2" fill="#86ADEF"/>
<rect id="Rectangle_3" x="31" y="58" width="2" height="2" fill="#86ADEF"/>
<rect id="Rectangle_4" x="25" y="40" width="6" height="2" fill="#86ADEF"/>
</g>
</svg>

<svg width="56" height="64" fill="none" xmlns="http://www.w3.org/2000/svg"><g fill="#86ADEF"><path fill-rule="evenodd" clip-rule="evenodd" d="M53.73 50.265c-.693-4.184-3.603-7.617-7.594-8.959l-8.865-2.978V37h-2.06v1.762L28 49.666l-7.21-10.904V37h-2.061v1.328l-8.863 2.978c-3.992 1.342-6.902 4.775-7.595 8.96L0 64h56l-2.27-13.735zM9.556 61.923H2.433l.33-2.004 6.905.87-.112 1.134zM3.103 57.87l6.77.853.214-2.164-6.63-.836-.354 2.147zm23.867 4.054H11.626l.917-9.242-2.05-.207-.2 2.018-6.496-.819.507-3.065a9.303 9.303 0 016.213-7.33l7.352-2.471-3.547 8.045 12.648 7.436v5.635zm-10.016-13.93l10.016 5.89v-2.03l-7.03-10.632-2.986 6.772zm12.076 3.86l7.03-10.63 2.986 6.771-10.016 5.89v-2.032zm14.427.826l2.05-.207.201 2.019 6.496-.819-.507-3.065a9.311 9.311 0 00-6.215-7.333l-7.352-2.47 3.547 8.045-12.647 7.437v5.635h6.18v-8.308h2.061v8.308h7.103l-.917-9.242zm2.455 3.878l6.63-.836.354 2.147-6.77.853-.214-2.164zm.42 4.231l.112 1.134h7.123l-.33-2.004-6.905.87z"/><path fill-rule="evenodd" clip-rule="evenodd" d="M10.941 19.514h-1.24a3.1 3.1 0 01-2.199-.903L5 16.13l1.466-1.452 2.502 2.48c.193.19.46.3.733.3h2.251v-2.054C11.952 6.911 18.927 0 27.5 0c8.575 0 15.55 6.91 15.55 15.405v2.054h2.25c.273 0 .54-.11.732-.3l2.502-2.48L50 16.131l-2.502 2.48a3.101 3.101 0 01-2.199.902h-1.24a5.052 5.052 0 011.063 3.082c0 2.635-2.021 4.788-4.604 5.077a11.224 11.224 0 01-2.882 4.819l-4.042 4.005A5.174 5.174 0 0129.93 38h-4.857a5.174 5.174 0 01-3.665-1.504l-4.042-4.005a11.207 11.207 0 01-2.882-4.819c-2.583-.29-4.604-2.442-4.604-5.077 0-1.16.405-2.22 1.063-3.081zm25.23 11.525a9.144 9.144 0 002.732-6.536v-4.99H16.098v4.99c0 2.469.972 4.79 2.733 6.536l4.041 4.005a3.105 3.105 0 002.2.902h4.857c.832 0 1.612-.32 2.2-.902l4.041-4.005zM20.378 9.729l7.121-4.41 7.122 4.41-1.733 7.73H22.111L20.38 9.73zm20.548 15.772c1.228-.41 2.122-1.552 2.122-2.906 0-1.338-.87-2.467-2.073-2.892v4.8c0 .336-.02.668-.049.998zM14.025 15.405h3.11v-2.054h-2.934c1.003-6.388 6.576-11.297 13.3-11.297 6.723 0 12.296 4.91 13.299 11.297h-2.934v2.054h3.11v2.054h-5.964l1.952-8.702-9.463-5.86-9.464 5.86 1.952 8.702h-5.964v-2.054zm0 9.098v-4.8c-1.203.425-2.073 1.554-2.073 2.892 0 1.354.894 2.495 2.122 2.907-.029-.33-.049-.663-.049-1z"/><path d="M24 13h8v2h-8zm10 32h2v2h-2zm-3 13h2v2h-2zm-6-18h6v2h-6z"/></g></svg>
